rospo-icon-theme-classic-common/64x64/places/folder-grey-git.svg

<svg height="64" width="64" xmlns="http://www.w3.org/2000/svg"><rect height="32" opacity=".2" rx="2.5" width="50" x="7" y="24"/><path d="m7 44.5c0 1.385 1.115 2.5 2.5 2.5h45c1.385 0 2.5-1.115 2.5-2.5v-27c0-1.385-1.115-2.5-2.5-2.5h-25.5v-2.5c0-1.385-1.115-2.5-2.5-2.5h-17c-1.385 0-2.5 1.115-2.5 2.5" fill="#727272"/><rect height="32" opacity=".2" rx="2.5" width="50" x="7" y="22"/><rect fill="#e4e4e4" height="20" rx="2.5" width="44" x="10" y="18"/><rect fill="#8e8e8e" height="32" rx="2.5" width="50" x="7" y="23"/><path d="m9.5 10c-1.385 0-2.5 1.115-2.5 2.5v1c0-1.385 1.115-2.5 2.5-2.5h17c1.385 0 2.5 1.115 2.5 2.5v-1c0-1.385-1.115-2.5-2.5-2.5zm19.5 5v1h25.5c1.39 0 2.5 1.115 2.5 2.5v-1c0-1.385-1.11-2.5-2.5-2.5z" fill="#fff" opacity=".1"/><path d="m26.412 28-1.414 1.414 2.304 2.304a2.9989 2.9989 0 0 0 -.297 1.289 2.9989 2.9989 0 0 0 2 2.823v8.348a2.9989 2.9989 0 0 0 -1.998 2.822 2.9989 2.9989 0 0 0 2.999 2.999 2.9989 2.9989 0 0 0 2.999-2.999 2.9989 2.9989 0 0 0 -2-2.823v-8.348a2.9989 2.9989 0 0 0  .289-.121l4.006 4.005a2.9989 2.9989 0 0 0 -.296 1.289 2.9989 2.9989 0 0 0 2.999 2.999 2.9989 2.9989 0 0 0 2.998-2.999 2.9989 2.9989 0 0 0 -2.998-2.998 2.9989 2.9989 0 0 0 -1.289.296l-4.006-4.005a2.9989 2.9989 0 0 0  .297-1.289 2.9989 2.9989 0 0 0 -2.999-2.999 2.9989 2.9989 0 0 0 -1.289.297l-2.303-2.302z" fill="#323232"/></svg>

<svg xmlns="http://www.w3.org/2000/svg" width="64" height="64" version="1.1">
 <rect style="opacity:0.2" width="50" height="32" x="7" y="24" rx="2.5" ry="2.5"/>
 <path style="fill:#727272" d="M 7,44.5 C 7,45.885 8.115,47 9.5,47 H 54.5 C 55.885,47 57,45.885 57,44.5 V 17.5 C 57,16.115 55.885,15 54.5,15 H 29 V 12.5 C 29,11.115 27.885,10 26.5,10 H 9.5 C 8.115,10 7,11.115 7,12.5"/>
 <rect style="opacity:0.2" width="50" height="32" x="7" y="22" rx="2.5" ry="2.5"/>
 <rect style="fill:#dcdcdc" width="44" height="20" x="10" y="18" rx="2.5" ry="2.5"/>
 <rect style="fill:#8e8e8e" width="50" height="32" x="7" y="23" rx="2.5" ry="2.5"/>
 <path style="opacity:0.1;fill:#ffffff" d="M 9.5,10 C 8.115,10 7,11.115 7,12.5 V 13.5 C 7,12.115 8.115,11 9.5,11 H 26.5 C 27.885,11 29,12.115 29,13.5 V 12.5 C 29,11.115 27.885,10 26.5,10 Z M 29,15 V 16 H 54.5 C 55.89,16 57,17.115 57,18.5 V 17.5 C 57,16.115 55.89,15 54.5,15 Z"/>
 <path style="fill:#323232" d="M 26.412,28 24.998,29.414 27.302,31.718 A 2.9989,2.9989 0 0 0 27.005,33.007 2.9989,2.9989 0 0 0 29.005,35.83 V 44.178 A 2.9989,2.9989 0 0 0 27.007,47 2.9989,2.9989 0 0 0 30.006,49.999 2.9989,2.9989 0 0 0 33.005,47 2.9989,2.9989 0 0 0 31.005,44.177 V 35.829 A 2.9989,2.9989 0 0 0 31.294,35.708 L 35.3,39.713 A 2.9989,2.9989 0 0 0 35.004,41.002 2.9989,2.9989 0 0 0 38.003,44.001 2.9989,2.9989 0 0 0 41.001,41.002 2.9989,2.9989 0 0 0 38.003,38.004 2.9989,2.9989 0 0 0 36.714,38.3 L 32.708,34.295 A 2.9989,2.9989 0 0 0 33.005,33.006 2.9989,2.9989 0 0 0 30.006,30.007 2.9989,2.9989 0 0 0 28.717,30.304 L 26.414,28.002 Z"/>
</svg>
